modules/material-icons/icons/xbox.svg

<svg xmlns="http://www.w3.org/2000/svg" viewBox="0 0 480 480" height="480" width="480" xml:space="preserve" version="1.1" id="svg3390"><defs id="defs3394"><clipPath id="clipPath3404" clipPathUnits="userSpaceOnUse"><path id="path3406" d="M0 48h48V0H0v48z"/></clipPath><clipPath id="clipPath3416" clipPathUnits="userSpaceOnUse"><path id="path3418" d="M0 48h48V0H0v48z"/></clipPath><clipPath id="clipPath3426" clipPathUnits="userSpaceOnUse"><path id="path3428" d="M0 48h48V0H0v48z"/></clipPath><clipPath id="clipPath3434" clipPathUnits="userSpaceOnUse"><path id="path3436" d="M0 48h48V0H0v48z"/></clipPath><clipPath id="clipPath3442" clipPathUnits="userSpaceOnUse"><path id="path3444" d="M0 48h48V0H0v48z"/></clipPath><clipPath id="clipPath3446" clipPathUnits="userSpaceOnUse"><path id="path3448" d="M0 48h48V0H0v48z"/></clipPath><clipPath id="clipPath3450" clipPathUnits="userSpaceOnUse"><path id="path3452" d="M48 48H0V0h48v48z"/></clipPath><clipPath id="clipPath3658" clipPathUnits="userSpaceOnUse"><path id="path3660" d="M0 48h48V0H0v48z"/></clipPath><clipPath id="clipPath3668" clipPathUnits="userSpaceOnUse"><path id="path3670" d="M0 48h48V0H0v48z"/></clipPath><clipPath id="clipPath3676" clipPathUnits="userSpaceOnUse"><path id="path3678" d="M0 48h48V0H0v48z"/></clipPath><clipPath id="clipPath3680" clipPathUnits="userSpaceOnUse"><path id="path3682" d="M0 0h48v48H0V0z"/></clipPath></defs><g transform="matrix(1.25 0 0 -1.25 0 480)" id="g3398"><g transform="matrix(6.39987 0 0 -6.41077 33.19 350.68)" id="g4502" fill="#000"><path d="M24.796 9.375l.02.012-.016-.012c10.006-7.208 16.219-3.584 16.219-3.584A24.835 24.835 0 0 0 24.8-.206 24.833 24.833 0 0 0 8.581 5.791s6.213-3.708 16.215 3.583z" id="path4488"/><path d="M18.242 14.196C10.894 9.673 6.531 7.743 6.531 7.743A24.841 24.841 0 0 0-.186 24.766 24.825 24.825 0 0 0 5.276 40.34s-3.427-9.186 12.966-26.144z" id="path4490"/><path d="M49.815 24.767a24.844 24.844 0 0 0-6.718-17.024s-4.363 1.931-11.711 6.453C47.78 31.154 44.352 40.341 44.352 40.341a24.818 24.818 0 0 0 5.463-15.574z" id="path4492"/><path d="M24.715 19.608C10.809 29.868 6.752 41.979 6.752 41.979a24.857 24.857 0 0 0 18.047 7.731c7.114 0 13.533-2.98 18.075-7.76 0 0-2.642-10.895-18.159-22.342z" id="path4494"/></g></g><style type="text/css" id="style3999"></style><style type="text/css" id="style4048"></style></svg>

<?xml version="1.0" encoding="UTF-8" standalone="no"?>
<svg
   xmlns:dc="http://purl.org/dc/elements/1.1/"
   xmlns:cc="http://creativecommons.org/ns#"
   xmlns:rdf="http://www.w3.org/1999/02/22-rdf-syntax-ns#"
   xmlns:svg="http://www.w3.org/2000/svg"
   xmlns="http://www.w3.org/2000/svg"
   viewBox="0 0 480 480"
   height="480"
   width="480"
   xml:space="preserve"
   version="1.1"
   id="svg3390"><metadata
     id="metadata3396"><rdf:RDF><cc:Work
         rdf:about=""><dc:format>image/svg+xml</dc:format><dc:type
           rdf:resource="http://purl.org/dc/dcmitype/StillImage" /><dc:title></dc:title></cc:Work></rdf:RDF></metadata><defs
     id="defs3394"><clipPath
       id="clipPath3404"
       clipPathUnits="userSpaceOnUse"><path
         id="path3406"
         d="M 0,48 48,48 48,0 0,0 0,48 Z" /></clipPath><clipPath
       id="clipPath3416"
       clipPathUnits="userSpaceOnUse"><path
         id="path3418"
         d="M 0,48 48,48 48,0 0,0 0,48 Z" /></clipPath><clipPath
       id="clipPath3426"
       clipPathUnits="userSpaceOnUse"><path
         id="path3428"
         d="M 0,48 48,48 48,0 0,0 0,48 Z" /></clipPath><clipPath
       id="clipPath3434"
       clipPathUnits="userSpaceOnUse"><path
         id="path3436"
         d="M 0,48 48,48 48,0 0,0 0,48 Z" /></clipPath><clipPath
       id="clipPath3442"
       clipPathUnits="userSpaceOnUse"><path
         id="path3444"
         d="m -2.13623e-4,48.0002 48.000013623,0 0,-48.000047412 -48.000013623,0 0,48.000047412 z" /></clipPath><clipPath
       id="clipPath3446"
       clipPathUnits="userSpaceOnUse"><path
         id="path3448"
         d="m -2.13623e-4,47.9998 48.000013623,0 0,-47.999952588 -48.000013623,0 0,47.999952588 z" /></clipPath><clipPath
       id="clipPath3450"
       clipPathUnits="userSpaceOnUse"><path
         id="path3452"
         d="M 48,48 0,48 0,0 48,0 48,48 Z" /></clipPath><clipPath
       id="clipPath3658"
       clipPathUnits="userSpaceOnUse"><path
         id="path3660"
         d="M 0,48 48,48 48,0 0,0 0,48 Z" /></clipPath><clipPath
       id="clipPath3668"
       clipPathUnits="userSpaceOnUse"><path
         id="path3670"
         d="m -2.28882e-4,48.0001 48.000028882,0 0,-47.99997793 -48.000028882,0 0,47.99997793 z" /></clipPath><clipPath
       id="clipPath3676"
       clipPathUnits="userSpaceOnUse"><path
         id="path3678"
         d="m -2.28882e-4,48.0001 48.000028882,0 0,-47.99997793 -48.000028882,0 0,47.99997793 z" /></clipPath><clipPath
       id="clipPath3680"
       clipPathUnits="userSpaceOnUse"><path
         id="path3682"
         d="M 0,0 48,0 48,48 0,48 0,0 Z" /></clipPath></defs><g
     transform="matrix(1.25,0,0,-1.25,0,480)"
     id="g3398"><g
       id="g3412"><g
         clip-path="url(#clipPath3416)"
         id="g3414"><g
           transform="matrix(1,0,0,-1,0,48)"
           id="g3420"><g
             id="g3422"><g
               clip-path="url(#clipPath3426)"
               id="g3424" /></g></g></g></g><path
       id="path3762"
       d=""
       style="fill:#000000" /><path
       id="path3760"
       d=""
       style="fill:#000000" /><path
       id="path3758"
       d=""
       style="fill:#000000" /><g
       transform="matrix(6.399872,0,0,-6.4107701,33.190376,350.67938)"
       id="g4502"><path
         style="fill:#000000"
         d="m 24.796,9.375 0.02,0.012 C 24.806,9.379 24.8,9.375 24.8,9.375 34.806,2.167 41.019,5.791 41.019,5.791 36.659,2.053 30.993,-0.206 24.8,-0.206 c -6.193,0 -11.86,2.259 -16.219,5.997 0,0 6.213,-3.708 16.215,3.583 z"
         id="path4488" /><path
         style="fill:#000000"
         d="M 18.242,14.196 C 10.894,9.673 6.531,7.743 6.531,7.743 c -4.167,4.456 -6.717,10.442 -6.717,17.023 0,5.892 2.044,11.307 5.462,15.574 0,0 -3.427,-9.186 12.966,-26.144 z"
         id="path4490" /><path
         style="fill:#000000"
         d="m 49.815,24.767 c 0,-6.581 -2.551,-12.568 -6.718,-17.024 0,0 -4.363,1.931 -11.711,6.453 16.394,16.958 12.966,26.145 12.966,26.145 3.419,-4.267 5.463,-9.681 5.463,-15.574 z"
         id="path4492" /><path
         style="fill:#000000"
         d="M 24.715,19.608 C 10.809,29.868 6.752,41.979 6.752,41.979 c 4.54,4.763 10.947,7.731 18.047,7.731 7.114,0 13.533,-2.98 18.075,-7.76 0,0 -2.642,-10.895 -18.159,-22.342 z"
         id="path4494" /></g></g><style
     type="text/css"
     id="style3999">
	.st0{fill:#FFFFFF;}
</style><style
     type="text/css"
     id="style4048">
	.st0{fill:#FFFFFF;}
</style></svg>
